;FLAVOR:Marlin
;TIME:2362
;Filament used: 1.96646m
;Layer height: 0.2
;Generated with Cura_SteamEngine 3.1.0
M190 S75
M104 S245
M109 S245
M82 ; absolute extrusion mode
G21 ;metric values
G92 E0 ;zero the extruded length
G90 ;absolute positioning
M82 ;set extruder to absolute mode
M107 ;start with the fan off
M117 Homing...
G28 ;Home all axes (max endstops)
M117 Auto-Level Activation...
G29 ; Auto-bed leveling
G1 F200 E10 ;extrude 3mm of feed stock
G92 E0 ;zero the extruded length again
G1 F9000
M117 Printing...
;LAYER_COUNT:98
;LAYER:0
M107
G0 F5600 X-4.569 Y19.807 Z0.2
;TYPE:SKIRT
G1 F1200 X-5.125 Y19.677 E0.02367
G1 X-6.116 Y19.393 E0.06641
G1 X-6.645 Y19.214 E0.08957
G1 X-8.29 Y18.564 E0.1629
G1 X-8.941 Y18.258 E0.19272
G1 X-10.577 Y17.361 E0.27007
G1 X-11.212 Y16.957 E0.30128
G1 X-12.788 Y15.802 E0.38228
G1 X-13.368 Y15.315 E0.41368
G1 X-14.742 Y13.998 E0.49259
G1 X-15.251 Y13.442 E0.52384
G1 X-16.447 Y11.949 E0.60315
G1 X-16.867 Y11.349 E0.63352
G1 X-17.811 Y9.802 E0.70865
G1 X-18.156 Y9.146 E0.73938
G1 X-18.946 Y7.372 E0.81989
G1 X-19.213 Y6.642 E0.85212
G1 X-19.771 Y4.727 E0.93481
G1 X-19.938 Y3.966 E0.96712
G1 X-20.225 Y2.042 E1.04777
G1 X-20.287 Y1.307 E1.07835
G1 X-20.323 Y-.517 E1.15398
G1 X-20.289 Y-1.267 E1.18511
G1 X-20.072 Y-3.215 E1.26637
G1 X-19.979 Y-3.786 E1.29035
G1 X-19.772 Y-4.749 E1.33119
G1 X-19.675 Y-5.135 E1.34769
G1 X-19.385 Y-6.14 E1.39106
G1 X-19.206 Y-6.664 E1.41402
G1 X-18.549 Y-8.322 E1.48796
G1 X-18.232 Y-8.991 E1.51865
G1 X-17.282 Y-10.705 E1.59989
G1 X-16.86 Y-11.359 E1.63216
G1 X-15.685 Y-12.932 E1.71356
G1 X-15.203 Y-13.496 E1.74432
G1 X-13.935 Y-14.802 E1.81979
G1 X-13.378 Y-15.306 E1.85093
G1 X-11.826 Y-16.534 E1.93298
G1 X-11.224 Y-16.951 E1.96334
G1 X-9.719 Y-17.857 E2.03617
G1 X-9.075 Y-18.191 E2.06625
G1 X-7.322 Y-18.965 E2.1457
G1 X-6.602 Y-19.227 E2.17746
G1 X-4.716 Y-19.774 E2.25888
G1 X-3.955 Y-19.94 E2.29117
G1 X-1.993 Y-20.23 E2.3734
G1 X-1.213 Y-20.292 E2.40584
G1 X0.771 Y-20.313 E2.4881
G1 X1.516 Y-20.272 E2.51903
G1 X3.326 Y-20.055 E2.59461
G1 X4.057 Y-19.919 E2.62543
G1 X5.947 Y-19.439 E2.70628
G1 X6.645 Y-19.214 E2.73668
G1 X8.29 Y-18.564 E2.81002
G1 X8.941 Y-18.258 E2.83984
G1 X10.577 Y-17.361 E2.91719
G1 X11.212 Y-16.957 E2.94839
G1 X12.788 Y-15.802 E3.0294
G1 X13.368 Y-15.315 E3.0608
G1 X14.742 Y-13.998 E3.13971
G1 X15.251 Y-13.442 E3.17096
G1 X16.447 Y-11.949 E3.25027
G1 X16.867 Y-11.349 E3.28063
G1 X17.811 Y-9.802 E3.35577
G1 X18.156 Y-9.146 E3.3865
G1 X18.946 Y-7.372 E3.46701
G1 X19.213 Y-6.642 E3.49924
G1 X19.771 Y-4.727 E3.58193
G1 X19.938 Y-3.966 E3.61423
G1 X20.225 Y-2.042 E3.69488
G1 X20.287 Y-1.307 E3.72546
G1 X20.323 Y0.517 E3.8011
G1 X20.289 Y1.267 E3.83223
G1 X20.072 Y3.215 E3.91349
G1 X19.979 Y3.786 E3.93747
G1 X19.772 Y4.749 E3.97831
G1 X19.677 Y5.125 E3.99439
G1 X19.393 Y6.116 E4.03713
G1 X19.214 Y6.645 E4.06028
G1 X18.564 Y8.29 E4.13361
G1 X18.258 Y8.941 E4.16344
G1 X17.361 Y10.577 E4.24079
G1 X16.957 Y11.212 E4.27199
G1 X15.802 Y12.788 E4.353
G1 X15.437 Y13.237 E4.37699
G1 X14.758 Y13.991 E4.41906
G1 X14.336 Y14.413 E4.4438
G1 X12.871 Y15.734 E4.52558
G1 X12.268 Y16.209 E4.55741
G1 X10.673 Y17.301 E4.63755
G1 X10.031 Y17.682 E4.6685
G1 X8.369 Y18.527 E4.7458
G1 X7.684 Y18.821 E4.7767
G1 X5.895 Y19.455 E4.85539
G1 X5.389 Y19.608 E4.87731
G1 X4.534 Y19.825 E4.91388
G1 X4.134 Y19.912 E4.93085
G1 X3.108 Y20.096 E4.97407
G1 X2.528 Y20.17 E4.99831
G1 X0.539 Y20.321 E5.08101
G1 X-.205 Y20.329 E5.11186
G1 X-1.968 Y20.234 E5.18505
G1 X-2.687 Y20.149 E5.21507
G1 X-4.569 Y19.807 E5.29437
G0 F5600 X-4.48 Y19.315
G1 F1200 X-4.987 Y19.197 E5.31596
G1 X-5.978 Y18.913 E5.3587
G1 X-6.461 Y18.749 E5.37984
G1 X-8.106 Y18.099 E5.45318
G1 X-8.701 Y17.819 E5.48044
G1 X-10.337 Y16.922 E5.55779
G1 X-10.916 Y16.554 E5.58623
G1 X-12.492 Y15.399 E5.66724
G1 X-13.022 Y14.954 E5.69593
G1 X-14.396 Y13.637 E5.77484
G1 X-14.86 Y13.129 E5.80337
G1 X-16.056 Y11.636 E5.88268
G1 X-16.441 Y11.089 E5.91041
G1 X-17.385 Y9.542 E5.98554
G1 X-17.699 Y8.943 E6.01358
G1 X-18.489 Y7.169 E6.09409
G1 X-18.733 Y6.502 E6.12354
G1 X-19.291 Y4.587 E6.20623
G1 X-19.444 Y3.893 E6.2357
G1 X-19.731 Y1.969 E6.31635
G1 X-19.787 Y1.298 E6.34426
G1 X-19.823 Y-.526 E6.4199
G1 X-19.792 Y-1.211 E6.44833
G1 X-19.575 Y-3.159 E6.52959
G1 X-19.49 Y-3.681 E6.55152
G1 X-19.283 Y-4.644 E6.59235
G1 X-19.194 Y-4.997 E6.60745
G1 X-18.904 Y-6.002 E6.65081
G1 X-18.741 Y-6.48 E6.67175
G1 X-18.084 Y-8.138 E6.74569
G1 X-17.795 Y-8.749 E6.77371
G1 X-16.845 Y-10.463 E6.85496
G1 X-16.459 Y-11.06 E6.88443
G1 X-15.284 Y-12.633 E6.96583
G1 X-14.845 Y-13.148 E6.99389
G1 X-13.577 Y-14.454 E7.06936
G1 X-13.068 Y-14.914 E7.0978
G1 X-11.516 Y-16.142 E7.17985
G1 X-10.966 Y-16.523 E7.20759
G1 X-9.461 Y-17.429 E7.28042
G1 X-8.874 Y-17.734 E7.30785
G1 X-7.121 Y-18.508 E7.38729
G1 X-6.462 Y-18.747 E7.41636
G1 X-4.576 Y-19.294 E7.49777
G1 X-3.882 Y-19.446 E7.52722
G1 X-1.92 Y-19.736 E7.60945
G1 X-1.208 Y-19.792 E7.63906
G1 X0.776 Y-19.813 E7.72132
G1 X1.457 Y-19.776 E7.7496
G1 X3.267 Y-19.559 E7.82517
G1 X3.934 Y-19.434 E7.85331
G1 X5.824 Y-18.954 E7.93415
G1 X6.461 Y-18.749 E7.9619
G1 X8.106 Y-18.099 E8.03523
G1 X8.701 Y-17.819 E8.06249
G1 X10.337 Y-16.922 E8.13984
G1 X10.916 Y-16.554 E8.16829
G1 X12.492 Y-15.399 E8.24929
G1 X13.022 Y-14.954 E8.27799
G1 X14.396 Y-13.637 E8.35689
G1 X14.86 Y-13.129 E8.38542
G1 X16.056 Y-11.636 E8.46473
G1 X16.441 Y-11.089 E8.49246
G1 X17.385 Y-9.542 E8.5676
G1 X17.699 Y-8.943 E8.59563
G1 X18.489 Y-7.169 E8.67615
G1 X18.733 Y-6.502 E8.70559
G1 X19.291 Y-4.587 E8.78829
G1 X19.444 Y-3.893 E8.81775
G1 X19.731 Y-1.969 E8.8984
G1 X19.787 Y-1.298 E8.92632
G1 X19.823 Y0.526 E9.00195
G1 X19.792 Y1.211 E9.03038
G1 X19.575 Y3.159 E9.11164
G1 X19.49 Y3.681 E9.13357
G1 X19.283 Y4.644 E9.17441
G1 X19.197 Y4.987 E9.18907
G1 X18.913 Y5.978 E9.23181
G1 X18.749 Y6.461 E9.25295
G1 X18.099 Y8.106 E9.32629
G1 X17.819 Y8.701 E9.35355
G1 X16.922 Y10.337 E9.4309
G1 X16.554 Y10.916 E9.45935
G1 X15.399 Y12.492 E9.54035
G1 X15.065 Y12.902 E9.56228
G1 X14.386 Y13.656 E9.60434
G1 X14.001 Y14.042 E9.62695
G1 X12.536 Y15.363 E9.70873
G1 X11.986 Y15.796 E9.73775
G1 X10.391 Y16.888 E9.81789
G1 X9.804 Y17.236 E9.84618
G1 X8.142 Y18.081 E9.92348
G1 X7.517 Y18.349 E9.95168
G1 X5.728 Y18.983 E10.03037
G1 X5.266 Y19.124 E10.05039
G1 X4.411 Y19.341 E10.08697
G1 X4.046 Y19.42 E10.10245
G1 X3.02 Y19.604 E10.14566
G1 X2.49 Y19.671 E10.16781
G1 X0.501 Y19.822 E10.25051
G1 X-.178 Y19.829 E10.27866
G1 X-1.941 Y19.734 E10.35186
G1 X-2.598 Y19.657 E10.37929
G1 X-4.48 Y19.315 E10.45859
G0 F5600 X-4.39 Y18.823
G1 F1200 X-4.85 Y18.716 E10.47817
G1 X-5.841 Y18.432 E10.52091
G1 X-6.278 Y18.284 E10.54004
G1 X-7.923 Y17.634 E10.61337
G1 X-8.461 Y17.381 E10.63802
G1 X-10.097 Y16.484 E10.71537
G1 X-10.621 Y16.15 E10.74113
G1 X-12.197 Y14.995 E10.82214
G1 X-12.676 Y14.593 E10.84807
G1 X-14.05 Y13.276 E10.92698
G1 X-14.47 Y12.817 E10.95277
G1 X-15.666 Y11.324 E11.03208
G1 X-16.014 Y10.828 E11.0572
G1 X-16.958 Y9.281 E11.13233
G1 X-17.242 Y8.739 E11.1577
G1 X-18.032 Y6.965 E11.23822
G1 X-18.253 Y6.362 E11.26484
G1 X-18.811 Y4.447 E11.34754
G1 X-18.949 Y3.819 E11.37419
G1 X-19.236 Y1.895 E11.45484
G1 X-19.287 Y1.288 E11.4801
G1 X-19.323 Y-.536 E11.55573
G1 X-19.295 Y-1.156 E11.58147
G1 X-19.078 Y-3.104 E11.66273
G1 X-19.001 Y-3.576 E11.68255
G1 X-18.794 Y-4.539 E11.72339
G1 X-18.714 Y-4.858 E11.73703
G1 X-18.424 Y-5.863 E11.78039
G1 X-18.276 Y-6.296 E11.79936
G1 X-17.619 Y-7.954 E11.8733
G1 X-17.358 Y-8.507 E11.89866
G1 X-16.408 Y-10.221 E11.9799
G1 X-16.059 Y-10.761 E12.00656
G1 X-14.884 Y-12.334 E12.08796
G1 X-14.486 Y-12.8 E12.11337
G1 X-13.218 Y-14.106 E12.18883
G1 X-12.757 Y-14.522 E12.21458
G1 X-11.205 Y-15.75 E12.29663
G1 X-10.708 Y-16.095 E12.32171
G1 X-9.203 Y-17.001 E12.39454
G1 X-8.672 Y-17.276 E12.41933
G1 X-6.919 Y-18.05 E12.49878
G1 X-6.323 Y-18.267 E12.52508
G1 X-4.437 Y-18.814 E12.60649
G1 X-3.809 Y-18.951 E12.63314
G1 X-1.847 Y-19.241 E12.71537
G1 X-1.202 Y-19.292 E12.74219
G1 X0.782 Y-19.313 E12.82445
G1 X1.397 Y-19.279 E12.84999
G1 X3.207 Y-19.062 E12.92556
G1 X3.811 Y-18.95 E12.95103
G1 X5.701 Y-18.47 E13.03188
G1 X6.278 Y-18.284 E13.05701
G1 X7.923 Y-17.634 E13.13034
G1 X8.461 Y-17.381 E13.15499
G1 X10.097 Y-16.484 E13.23234
G1 X10.621 Y-16.15 E13.25811
G1 X12.197 Y-14.995 E13.33911
G1 X12.676 Y-14.593 E13.36504
G1 X14.05 Y-13.276 E13.44395
G1 X14.47 Y-12.817 E13.46974
G1 X15.666 Y-11.324 E13.54905
G1 X16.014 Y-10.828 E13.57417
G1 X16.958 Y-9.281 E13.64931
G1 X17.242 Y-8.739 E13.67468
G1 X18.032 Y-6.965 E13.75519
G1 X18.253 Y-6.362 E13.78181
G1 X18.811 Y-4.447 E13.86451
G1 X18.949 Y-3.819 E13.89117
G1 X19.236 Y-1.895 E13.97182
G1 X19.287 Y-1.288 E13.99707
G1 X19.323 Y0.536 E14.07271
G1 X19.295 Y1.156 E14.09844
G1 X19.078 Y3.104 E14.1797
G1 X19.001 Y3.576 E14.19953
G1 X18.794 Y4.539 E14.24036
G1 X18.716 Y4.85 E14.25366
G1 X18.432 Y5.841 E14.2964
G1 X18.284 Y6.278 E14.31553
G1 X17.634 Y7.923 E14.38886
G1 X17.381 Y8.461 E14.41351
G1 X16.484 Y10.097 E14.49086
G1 X16.15 Y10.621 E14.51662
G1 X14.995 Y12.197 E14.59763
G1 X14.694 Y12.568 E14.61744
G1 X14.015 Y13.322 E14.6595
G1 X13.666 Y13.671 E14.67997
G1 X12.201 Y14.992 E14.76175
G1 X11.703 Y15.383 E14.788
G1 X10.108 Y16.475 E14.86814
G1 X9.578 Y16.79 E14.8937
G1 X7.916 Y17.635 E14.971
G1 X7.35 Y17.878 E14.99654
G1 X5.561 Y18.512 E15.07523
G1 X5.143 Y18.639 E15.09334
G1 X4.288 Y18.856 E15.12991
G1 X3.957 Y18.927 E15.14395
G1 X2.931 Y19.111 E15.18716
G1 X2.453 Y19.172 E15.20714
G1 X0.464 Y19.323 E15.28984
G1 X-.152 Y19.33 E15.31538
G1 X-1.915 Y19.235 E15.38858
G1 X-2.508 Y19.165 E15.41333
G1 X-4.39 Y18.823 E15.49264
G0 F5600 X-4.301 Y18.332
G1 F1200 X-4.712 Y18.236 E15.51014
G1 X-5.703 Y17.952 E15.55288
G1 X-6.094 Y17.819 E15.57
G1 X-7.739 Y17.169 E15.64333
G1 X-8.22 Y16.943 E15.66536
G1 X-9.856 Y16.046 E15.74272
G1 X-10.325 Y15.747 E15.76578
G1 X-11.901 Y14.592 E15.84678
G1 X-12.33 Y14.232 E15.87
G1 X-13.704 Y12.915 E15.94891
G1 X-14.08 Y12.504 E15.972
G1 X-15.276 Y11.011 E16.05131
G1 X-15.587 Y10.568 E16.07375
G1 X-16.531 Y9.021 E16.14889
G1 X-16.785 Y8.536 E16.17159
G1 X-17.575 Y6.762 E16.2521
G1 X-17.773 Y6.222 E16.27594
G1 X-18.331 Y4.307 E16.35864
G1 X-18.454 Y3.745 E16.38249
G1 X-18.741 Y1.821 E16.46314
G1 X-18.787 Y1.278 E16.48574
G1 X-18.823 Y-.546 E16.56137
G1 X-18.798 Y-1.101 E16.5844
G1 X-18.581 Y-3.049 E16.66567
G1 X-18.512 Y-3.471 E16.68339
G1 X-18.305 Y-4.434 E16.72423
G1 X-18.233 Y-4.719 E16.73642
G1 X-17.943 Y-5.724 E16.77978
G1 X-17.811 Y-6.112 E16.79678
G1 X-17.154 Y-7.77 E16.87072
G1 X-16.92 Y-8.264 E16.89338
G1 X-15.97 Y-9.978 E16.97462
G1 X-15.658 Y-10.461 E16.99846
G1 X-14.483 Y-12.034 E17.07986
G1 X-14.127 Y-12.452 E17.10263
G1 X-12.859 Y-13.758 E17.17809
G1 X-12.447 Y-14.13 E17.20111
G1 X-10.895 Y-15.358 E17.28316
G1 X-10.45 Y-15.666 E17.3056
G1 X-8.945 Y-16.572 E17.37843
G1 X-8.47 Y-16.819 E17.40062
G1 X-6.717 Y-17.593 E17.48007
G1 X-6.184 Y-17.787 E17.50358
G1 X-4.298 Y-18.334 E17.585
G1 X-3.735 Y-18.456 E17.60888
G1 X-1.773 Y-18.746 E17.69111
G1 X-1.197 Y-18.792 E17.71506
G1 X0.787 Y-18.813 E17.79732
G1 X1.338 Y-18.783 E17.8202
G1 X3.148 Y-18.566 E17.89578
G1 X3.688 Y-18.465 E17.91856
G1 X5.578 Y-17.985 E17.9994
G1 X6.094 Y-17.819 E18.02187
G1 X7.739 Y-17.169 E18.09521
G1 X8.22 Y-16.943 E18.11724
G1 X9.856 Y-16.046 E18.19459
G1 X10.325 Y-15.747 E18.21765
G1 X11.901 Y-14.592 E18.29866
G1 X12.33 Y-14.232 E18.32188
G1 X13.704 Y-12.915 E18.40079
G1 X14.08 Y-12.504 E18.42388
G1 X15.276 Y-11.011 E18.50319
G1 X15.587 Y-10.568 E18.52563
G1 X16.531 Y-9.021 E18.60077
G1 X16.785 Y-8.536 E18.62346
G1 X17.575 Y-6.762 E18.70398
G1 X17.773 Y-6.222 E18.72782
G1 X18.331 Y-4.307 E18.81052
G1 X18.454 Y-3.745 E18.83437
G1 X18.741 Y-1.821 E18.91502
G1 X18.787 Y-1.278 E18.93761
G1 X18.823 Y0.546 E19.01325
G1 X18.798 Y1.101 E19.03628
G1 X18.581 Y3.049 E19.11754
G1 X18.512 Y3.471 E19.13527
G1 X18.305 Y4.434 E19.17611
G1 X18.236 Y4.712 E19.18798
G1 X17.952 Y5.703 E19.23072
G1 X17.819 Y6.094 E19.24784
G1 X17.169 Y7.739 E19.32118
G1 X16.943 Y8.22 E19.34321
G1 X16.046 Y9.856 E19.42056
G1 X15.747 Y10.325 E19.44362
G1 X14.592 Y11.901 E19.52463
G1 X14.322 Y12.233 E19.54237
G1 X13.643 Y12.987 E19.58444
G1 X13.331 Y13.299 E19.60273
G1 X11.866 Y14.62 E19.68452
G1 X11.421 Y14.971 E19.70801
G1 X9.826 Y16.063 E19.78815
G1 X9.351 Y16.344 E19.81103
G1 X7.689 Y17.189 E19.88833
G1 X7.183 Y17.407 E19.91118
G1 X5.394 Y18.041 E19.98987
G1 X5.02 Y18.154 E20.00606
G1 X4.165 Y18.371 E20.04264
G1 X3.869 Y18.435 E20.05519
G1 X2.843 Y18.619 E20.09841
G1 X2.415 Y18.674 E20.1163
G1 X0.426 Y18.825 E20.199
G1 X-.125 Y18.831 E20.22184
G1 X-1.888 Y18.736 E20.29504
G1 X-2.419 Y18.674 E20.3172
G1 X-4.301 Y18.332 E20.39651
G0 F5600 X-4.211 Y17.84
G1 F1200 X-4.574 Y17.755 E20.41197
G1 X-5.565 Y17.471 E20.45471
G1 X-5.91 Y17.354 E20.46981
G1 X-7.555 Y16.704 E20.54314
G1 X-7.98 Y16.504 E20.56261
G1 X-9.616 Y15.607 E20.63997
G1 X-10.03 Y15.344 E20.6603
G1 X-11.606 Y14.189 E20.74131
G1 X-11.984 Y13.871 E20.76179
G1 X-13.358 Y12.554 E20.8407
G1 X-13.69 Y12.192 E20.86106
G1 X-14.886 Y10.699 E20.94037
G1 X-15.16 Y10.307 E20.9602
G1 X-16.104 Y8.76 E21.03533
G1 X-16.329 Y8.333 E21.05534
G1 X-17.119 Y6.559 E21.13586
G1 X-17.293 Y6.082 E21.15691
G1 X-17.851 Y4.167 E21.2396
G1 X-17.96 Y3.671 E21.26066
G1 X-18.247 Y1.747 E21.34131
G1 X-18.287 Y1.268 E21.36123
G1 X-18.323 Y-.556 E21.43687
G1 X-18.301 Y-1.045 E21.45716
G1 X-18.084 Y-2.993 E21.53843
G1 X-18.023 Y-3.366 E21.5541
G1 X-17.816 Y-4.329 E21.59493
G1 X-17.753 Y-4.581 E21.6057
G1 X-17.463 Y-5.586 E21.64907
G1 X-17.346 Y-5.927 E21.66402
G1 X-16.689 Y-7.585 E21.73795
G1 X-16.483 Y-8.022 E21.75798
G1 X-15.533 Y-9.736 E21.83923
G1 X-15.257 Y-10.162 E21.86027
G1 X-14.082 Y-11.735 E21.94168
G1 X-13.769 Y-12.103 E21.96171
G1 X-12.501 Y-13.409 E22.03717
G1 X-12.137 Y-13.738 E22.05751
G1 X-10.585 Y-14.966 E22.13956
G1 X-10.192 Y-15.238 E22.15938
G1 X-8.687 Y-16.144 E22.23221
G1 X-8.268 Y-16.361 E22.25177
G1 X-6.515 Y-17.135 E22.33122
G1 X-6.045 Y-17.307 E22.35197
G1 X-4.159 Y-17.854 E22.43338
G1 X-3.662 Y-17.962 E22.45447
G1 X-1.7 Y-18.252 E22.5367
G1 X-1.192 Y-18.292 E22.55782
G1 X0.792 Y-18.313 E22.64008
G1 X1.278 Y-18.286 E22.66026
G1 X3.088 Y-18.069 E22.73584
G1 X3.565 Y-17.981 E22.75595
G1 X5.455 Y-17.501 E22.83679
G1 X5.91 Y-17.354 E22.85662
G1 X7.555 Y-16.704 E22.92995
G1 X7.98 Y-16.504 E22.94942
G1 X9.616 Y-15.607 E23.02678
G1 X10.03 Y-15.344 E23.04711
G1 X11.606 Y-14.189 E23.12812
G1 X11.984 Y-13.871 E23.1486
G1 X13.358 Y-12.554 E23.22751
G1 X13.69 Y-12.192 E23.24787
G1 X14.886 Y-10.699 E23.32718
G1 X15.16 Y-10.307 E23.34701
G1 X16.104 Y-8.76 E23.42214
G1 X16.329 Y-8.333 E23.44215
G1 X17.119 Y-6.559 E23.52267
G1 X17.293 Y-6.082 E23.54372
G1 X17.851 Y-4.167 E23.62641
G1 X17.96 Y-3.671 E23.64747
G1 X18.247 Y-1.747 E23.72812
G1 X18.287 Y-1.268 E23.74804
G1 X18.323 Y0.556 E23.82368
G1 X18.301 Y1.045 E23.84397
G1 X18.084 Y2.993 E23.92524
G1 X18.023 Y3.366 E23.94091
G1 X17.816 Y4.329 E23.98174
G1 X17.755 Y4.574 E23.99221
G1 X17.471 Y5.565 E24.03495
G1 X17.354 Y5.91 E24.05005
G1 X16.704 Y7.555 E24.12339
G1 X16.504 Y7.98 E24.14286
G1 X15.607 Y9.616 E24.22021
G1 X15.344 Y10.03 E24.24055
G1 X14.189 Y11.606 E24.32155
G1 X13.951 Y11.898 E24.33717
G1 X13.272 Y12.652 E24.37924
G1 X12.996 Y12.928 E24.39542
G1 X11.531 Y14.249 E24.47721
G1 X11.138 Y14.558 E24.49793
G1 X9.543 Y15.65 E24.57807
G1 X9.125 Y15.899 E24.59824
G1 X7.463 Y16.744 E24.67554
G1 X7.016 Y16.936 E24.69571
G1 X5.227 Y17.57 E24.7744
G1 X4.897 Y17.67 E24.7887
G1 X4.042 Y17.887 E24.82527
G1 X3.781 Y17.943 E24.83634
G1 X2.755 Y18.127 E24.87955
G1 X2.377 Y18.175 E24.89535
G1 X0.388 Y18.326 E24.97805
G1 X-0.098 Y18.332 E24.9982
G1 X-1.861 Y18.237 E25.0714
G1 X-2.329 Y18.182 E25.09094
G1 X-4.211 Y17.84 E25.17024
G0 F5600 X-4.122 Y17.348
G1 F1200 X-4.436 Y17.274 E25.18361
G1 X-5.427 Y16.99 E25.22635
G1 X-5.726 Y16.889 E25.23944
G1 X-7.371 Y16.239 E25.31277
G1 X-7.739 Y16.066 E25.32963
G1 X-9.375 Y15.169 E25.40698
G1 X-9.734 Y14.94 E25.42464
G1 X-11.31 Y13.785 E25.50564
G1 X-11.638 Y13.51 E25.52339
G1 X-13.012 Y12.193 E25.6023
G1 X-13.299 Y11.879 E25.61993
G1 X-14.495 Y10.386 E25.69924
G1 X-14.733 Y10.047 E25.71642
